X:1
T:Title
%%score { ( 1 4 ) | ( 2 3 ) }
L:1/8
Q:1/4=100
M:4/4
K:G
V:1 treble nm="Grand Piano"
V:4 treble 
V:2 bass 
V:3 bass 
V:1
 [DB]2 A>G [B,G]3 [B,G] | [EG]2 [Ec]2 [DB]4 | [CA]2 B>A [B,G]3 G | [DF]2 E2 F2- [CF]2 | %4
w: Charles~Edward~Prior * * * *||||
 [B,G]2 A>A [DB]3 [=FB] | [Ec]2 [DB]2 [CA]2 GE | [B,D]3 D c2 BG | [CDB]3 [CA] [B,G]4 | %8
w: ||||
 [EG]2 [EG]>[G,CE] [G,B,G]4 | z4 .[DA]2 z2 | d2 ed dBBG | [EG]2 [Ec]>[CE] [B,D]4 | %12
w: ||||
 F2 ED [B,E] [B,D]3 | B2 AG [GB] .[FA]3 | B2 dB [Ed][Ec][B,EB][CEA] | [B,DG]2 [DGB]>[CFA] [B,G]4 |] %16
w: ||||
V:2
 z2 C>B, [G,,G,]4 | [C,,C,]4 [G,,G,]4 | z2 D>C z2 z ^C | z2 ^C2 [D,,D,]4 | z2 C>C [G,,G,]4 | %5
 [C,,C,]4 z2 EC | z2 z B, [A,E]2 DB, | [D,,D,]4 [G,,G,]4 | [C,C]2 [C,C]>C, G,,4 | G,2 G,G, z .A,3 | %10
 [G,B,G]2 [G,CG][G,B,G] [G,B,G][G,DG][G,DG][K:bass][G,B,D] | [C,C]2 [C,G,]>[C,G,] [G,,G,]4 | %12
 [D,A,D]2 [D,G,C][D,F,C] [G,,G,] [G,,G,]3 | [G,D]2 [G,CD][G,B,D] [D,D] .[D,D]3 | %14
 [G,DG]2 [G,B,G][G,=F][K:bass] [C,G,][C,A,]C,C, | D,2 D,>D, G,4 |] %16
V:3
 [G,,G,]4 z4 | x8 | [D,,D,]4 [E,,E,]4 | A,,4 z4 | [G,,G,]4 z4 | z4 [C,,C,]4 | [D,,D,]4 [D,,D,]4 | %7
 x8 | x8 | z4 D,4 | x7[K:bass] x | x8 | x8 | x8 | x4[K:bass] x4 | x8 |] %16
V:4
 x8 | x8 | x8 | z4 D2 z2 | x8 | x8 | x8 | x8 | x8 | [DB]2 [CDA][B,DG] F- [Fd]3 | x8 | x8 | x8 | %13
 x8 | x8 | x8 |] %16

